X:1
T:Polka : Maggie in the wood
R:polka
C:Trad.
S:
A:Irlande
Q:1/4=120
M:2/4
L:1/8
K:G
B/A/ | GD GA | Be e/f/g/e/ | dB B/A/G/A/ | BA A/c/B/A/ |
GD GA | Be e/f/g/e/ | dB AB/A/ |1 G3 :|2 G3 d |: 
g>f ed | ef g>e | dB B/A/G/A/ | BA Ad |
g>f ed | ef g>e | dB AB/A/ |1 G3 d :|2 G3 |]
